DevCon_2019/Icons/SVG/icon_cutlery.svg

<svg height="33" viewBox="0 0 26 33" width="26" xmlns="http://www.w3.org/2000/svg"><path d="m30.4285851 16.7142544v11.428585c0 1.4464303-.9285726 2.7500033-2.2857171 3.2321467v13.9107309c0 1.2500015-1.0357155 2.285717-2.285717 2.285717h-2.285717c-1.2500015 0-2.285717-1.0357155-2.285717-2.285717v-13.9107309c-1.3571445-.4821434-2.285717-1.7857164-2.285717-3.2321467v-11.428585c0-.6250008.5178578-1.1428585 1.1428585-1.1428585.6250008 0 1.1428585.5178577 1.1428585 1.1428585v7.4285803c0 .6250007.5178578 1.1428585 1.1428585 1.1428585.6250008 0 1.1428585-.5178578 1.1428585-1.1428585v-7.4285803c0-.6250008.5178578-1.1428585 1.1428585-1.1428585.6250008 0 1.1428585.5178577 1.1428585 1.1428585v7.4285803c0 .6250007.5178578 1.1428585 1.1428585 1.1428585.6250008 0 1.1428585-.5178578 1.1428585-1.1428585v-7.4285803c0-.6250008.5178578-1.1428585 1.1428585-1.1428585.6250008 0 1.1428586.5178577 1.1428586 1.1428585zm13.714302 0v28.5714626c0 1.2500015-1.0357155 2.285717-2.285717 2.285717h-2.285717c-1.2500015 0-2.285717-1.0357155-2.285717-2.285717v-9.142868h-4.0000048c-.3035718 0-.5714292-.2678575-.5714292-.5714293v-14.2857313c0-3.1428609 2.5714316-5.7142925 5.7142925-5.7142925h4.571434c.6250008 0 1.1428585.5178577 1.1428585 1.1428585z" fill="#f3f8f2" fill-rule="evenodd" transform="translate(-19 -15)"/></svg>

<?xml version="1.0" encoding="UTF-8"?>
<svg width="26px" height="33px" viewBox="0 0 26 33" version="1.1" xmlns="http://www.w3.org/2000/svg" xmlns:xlink="http://www.w3.org/1999/xlink">
    <!-- Generator: Sketch 52.6 (67491) - http://www.bohemiancoding.com/sketch -->
    <title>Cutlery - FontAwesome</title>
    <desc>Created with Sketch.</desc>
    <g id="Page-1" stroke="none" stroke-width="1" fill="none" fill-rule="evenodd">
        <g id="DESKTOP-1024PX" transform="translate(-135.000000, -3652.000000)" fill="#F3F8F2">
            <g id="EVENT-AGENDA" transform="translate(-98.000000, 2685.000000)">
                <g id="DAY-1-AGENDA-Copy-3" transform="translate(193.000000, 249.000000)">
                    <g id="AGENDA-ITEM-Copy-3" transform="translate(1.000000, 703.000000)">
                        <g id="AVATAR" transform="translate(20.000000, 0.000000)">
                            <path d="M30.4285851,16.7142544 L30.4285851,28.1428394 C30.4285851,29.5892697 29.5000125,30.8928427 28.142868,31.3749861 L28.142868,45.285717 C28.142868,46.5357185 27.1071525,47.571434 25.857151,47.571434 L23.571434,47.571434 C22.3214325,47.571434 21.285717,46.5357185 21.285717,45.285717 L21.285717,31.3749861 C19.9285725,30.8928427 19,29.5892697 19,28.1428394 L19,16.7142544 C19,16.0892536 19.5178578,15.5713959 20.1428585,15.5713959 C20.7678593,15.5713959 21.285717,16.0892536 21.285717,16.7142544 L21.285717,24.1428347 C21.285717,24.7678354 21.8035748,25.2856932 22.4285755,25.2856932 C23.0535763,25.2856932 23.571434,24.7678354 23.571434,24.1428347 L23.571434,16.7142544 C23.571434,16.0892536 24.0892918,15.5713959 24.7142925,15.5713959 C25.3392933,15.5713959 25.857151,16.0892536 25.857151,16.7142544 L25.857151,24.1428347 C25.857151,24.7678354 26.3750088,25.2856932 27.0000095,25.2856932 C27.6250103,25.2856932 28.142868,24.7678354 28.142868,24.1428347 L28.142868,16.7142544 C28.142868,16.0892536 28.6607258,15.5713959 29.2857265,15.5713959 C29.9107273,15.5713959 30.4285851,16.0892536 30.4285851,16.7142544 Z M44.1428871,16.7142544 L44.1428871,45.285717 C44.1428871,46.5357185 43.1071716,47.571434 41.8571701,47.571434 L39.5714531,47.571434 C38.3214516,47.571434 37.2857361,46.5357185 37.2857361,45.285717 L37.2857361,36.142849 L33.2857313,36.142849 C32.9821595,36.142849 32.7143021,35.8749915 32.7143021,35.5714197 L32.7143021,21.2856884 C32.7143021,18.1428275 35.2857337,15.5713959 38.4285946,15.5713959 L43.0000286,15.5713959 C43.6250294,15.5713959 44.1428871,16.0892536 44.1428871,16.7142544 Z" id="Cutlery---FontAwesome"></path>
                        </g>
                    </g>
                </g>
            </g>
        </g>
    </g>
</svg>
